X: 40
T: Bath Medley
P: Longways for as many as will
%R: jig
B: "The Dancing-Master" printed by John Walsh, London
S: 6: CCDM1 http://imslp.org/wiki/The_Compleat_Country_Dancing-Master_(Various) V.1 p.9 #22
Z: 2012-2013 John Chambers <jc:trillian.mit.edu>
N: 2nd part has initial repeat but no final repeat.
M: 6/4
L: 1/4
K: G
% - - - - - - - - - - - - - - - - - - - - - - - - -
|:\
G2g Tf>ed | efg dcB | ecA dBG | F2G AFD |\
G2g Tf>ed | efg dcB | ecA dBG | ADF G3 :|
|:\
f2g afd | e2g/f/ g3 | B2c dBG | F2G AFD |\
G2g Tf>ed | efg dcB | ecA dBG | ADF G3 :|
% - - - - - - - - Dance description - - - - - - - -
%%begintext align
%% The 1st Man cast down, and the 2d Wo. Cast up at the
%% same Time, and then cast back again into your own
%% Places .|  First Wo. and 2d Man does the same :|  The
%% 1st Man change Places with the 2d Wo. 1st Wo. does
%% the same with the 2d Man, all four go round to your
%% own Places .|  First and 2d Men Sets to their Partners
%% Right and Left half round.
%%endtext

%%sep 1 1 500
%%sep 1 1 500
